src/assets/icon/edit.svg

<svg width="20" height="20" viewBox="0 0 20 20" fill="none" xmlns="http://www.w3.org/2000/svg">
<mask id="mask0_166_10266" style="mask-type:alpha" maskUnits="userSpaceOnUse" x="0" y="0" width="20" height="20">
<rect width="20" height="20" fill="#D9D9D9"/>
</mask>
<g mask="url(#mask0_166_10266)">
<path d="M4.16663 15.8332H5.21788L13.7483 7.30275L12.697 6.2515L4.16663 14.7819V15.8332ZM3.66996 17.0832C3.45649 17.0832 3.2776 17.011 3.13329 16.8665C2.98885 16.7222 2.91663 16.5433 2.91663 16.3298V14.8861C2.91663 14.6829 2.95565 14.4892 3.03371 14.305C3.11163 14.1209 3.21899 13.9604 3.35579 13.8236L13.9087 3.27546C14.0347 3.16102 14.1738 3.07262 14.326 3.01025C14.4784 2.94775 14.6381 2.9165 14.8052 2.9165C14.9723 2.9165 15.1341 2.94616 15.2906 3.00546C15.4473 3.06477 15.5859 3.15907 15.7066 3.28838L16.7243 4.3188C16.8536 4.43949 16.9458 4.57838 17.0008 4.73546C17.0558 4.89255 17.0833 5.04963 17.0833 5.20671C17.0833 5.37435 17.0547 5.53428 16.9975 5.6865C16.9402 5.83887 16.8492 5.97803 16.7243 6.104L6.17621 16.644C6.0394 16.7808 5.87892 16.8882 5.69475 16.9661C5.51058 17.0441 5.3169 17.0832 5.11371 17.0832H3.66996ZM13.2135 6.7863L12.697 6.2515L13.7483 7.30275L13.2135 6.7863Z" fill="#636263"/>
</g>
</svg>

<svg xmlns="http://www.w3.org/2000/svg" width="20" height="20" fill="none" xmlns:v="https://vecta.io/nano"><mask id="A" maskUnits="userSpaceOnUse" x="0" y="0" width="20" height="20" mask-type="alpha"><path fill="#d9d9d9" d="M0 0h20v20H0z"/></mask><g mask="url(#A)"><path d="M4.167 15.833h1.051l8.53-8.53-1.051-1.051-8.53 8.53v1.051zm-.497 1.25c-.213 0-.392-.072-.537-.217s-.217-.323-.217-.537v-1.444c0-.203.039-.397.117-.581a1.5 1.5 0 0 1 .322-.481L13.909 3.275c.126-.114.265-.203.417-.265a1.25 1.25 0 0 1 .479-.094 1.36 1.36 0 0 1 .485.089c.157.059.295.154.416.283l1.018 1.03a1.03 1.03 0 0 1 .277.417 1.42 1.42 0 0 1 .082.471c0 .168-.029.328-.086.48a1.18 1.18 0 0 1-.273.418L6.176 16.644a1.5 1.5 0 0 1-.481.322c-.184.078-.378.117-.581.117H3.67zm9.544-10.297l-.517-.535 1.051 1.051-.535-.516z" fill="#636263"/></g></svg>
